X:1
T:Title
%%score 1 { 2 | 3 }
L:1/8
Q:1/4=110
M:4/4
K:G
V:1 treble nm="Grand Piano, Soprano"
V:2 bass nm="Choir Pad, I Love the Holy Bible"
V:3 bass 
V:1
 [Gd]2 [Gd]2- [Gd][GB] G2 | [FA]2 [GB]4 [DG]2 | D2 [CE]2- [CE][DG] [DF]2 | [DG]2 [DA]6 | %4
w: By~James~Ramsey~Murray * * * *||||
 [Fd]2 [Gd]2- [Gd][GB] G2 | [FA]2 [GB]4 [DG]2 | D2 [CE]2- [CE][EG] F2 | [DA]2 [DG]6 | %8
w: ||||
 [GB]2 [Fc]2- [Fc][GB] [DA]2 | [FA]2 [GB]2 [Fc]2 [Gd]2 | [GB]2 [Fc]2- [Fc][GB] [DA]2 | %11
w: |||
 [FA]2 [GB]2 [Fc]2 [Gd]2 | [Gd]2 [Ge]4 [Gc]2 | [Ge]2 [Gd]4 [GB]2 | [Gd]2 [Gd]2- [Gd]G [GB]2 | %15
w: ||||
 [FA]2 G6- | G2 z2 z4 |] %17
w: ||
V:2
 B,2 B,2- B,D D2 | D2 D4 B,2 | G,2 G,2- G,G, D,2 | G,2 F,6 | C2 B,2- B,[K:treble]D D2 | D2 D4 B,2 | %6
 G,2 G,2- G,C A,2 | C2 B,6 | D2 D2- DD D2 | D2 D2 D2 D2 | D2 D2- DD D2 | D2 D2 D2 D2 | B,2 C4 C2 | %13
 C2 B,4 D2 | B,2 D2- DD D2 | C2 B,6- | B,2 z2 z4 |] %17
V:3
 G,2 G,2- G,G, B,,2 | D,2 G,4 G,2 | B,,2 C,2- C,B,, A,,2 | G,,2 D,6 | D,2 G,2- G,G, B,,2 | %5
 D,2 G,4 G,2 | B,,2 C,2- C,C, D,2 | D,2 G,6 | G,2 A,2- A,G, F,2 | D,2 G,2 A,2 B,2 | %10
 G,2 A,2- A,G, F,2 | D,2 G,2 A,2 B,2 | G,2 C,4 E,2 | C,2 G,4 G,2 | G,2 B,,2- B,,B,, D,2 | %15
 D,2 G,,6- | G,,2 z2 z4 |] %17

